X:96
T: ALS DIE PREUSSEN MARSCHIRTEN
N: Z0096
O: Europa, Mitteleuropa, Deutschland, Preussen
R: Sagen - Lied, Romanze, Soldaten - Lied
M: 4/4
L: 1/16
K: C
G,2G,2 | C2G,2E,2G,2C4C2D2 | E8z4
C2D2 | E6E2E2G2F2A2 | G8z4
G4 | F4D2D2E4C2E2 | D4G,4z4
G4 | F3FD2F2E4C2E2 | D4G,4z4
G,4 | C3CB,3B,A,3B,C2A,2 | G,8z4
C2E2 | D3G,G2F2E4D4 | C8z4

@@@ Tune index: 9854
